public/TerazChinyLogo.svg

<svg width="168" height="35" viewBox="0 0 168 35" fill="none" xmlns="http://www.w3.org/2000/svg">
<path fill-rule="evenodd" clip-rule="evenodd" d="M23.3368 6.80394C23.5773 6.5531 24.3844 6.05143 25.6893 6.05143C24.9574 5.71699 22.5526 5.19859 18.7886 5.8006C20.1583 5.10033 22.9604 2.95985 23.2113 0C22.3121 1.29598 19.5163 4.20148 15.5265 5.45565C16.3002 4.76586 17.7159 2.82816 17.1889 0.595731C16.5407 2.06938 14.1777 5.33024 9.91183 6.58441C9.43087 6.73073 8.33095 7.2742 7.7789 8.77921C7.56979 9.18682 6.73125 10.0836 5.04999 10.4096C4.68405 10.441 3.88943 10.4096 3.60713 10.4096C3.42938 10.4514 3.10531 10.6605 3.01116 11.0367C2.956 11.2562 2.8355 11.7516 3.01116 12.3536C3.31431 12.9389 4.24682 14.1596 5.55168 14.3603C5.32165 14.099 4.99962 13.451 5.55168 12.9493C5.72942 12.9284 6.14138 12.8992 6.36722 12.9493C6.59306 12.9995 7.79963 12.4895 8.37469 12.2282C8.89747 12.0401 10.081 11.783 10.6331 12.2595C11.1851 12.7361 10.1103 13.3151 9.50389 13.5451C9.26341 13.6914 8.6068 14.1659 7.90419 14.8933C7.20157 15.6207 6.27312 15.3218 5.89672 15.0814C5.8758 15.6249 6.21038 16.7244 7.71598 16.7746C7.99829 16.7955 8.72599 16.6303 9.37842 15.8026C10.0308 14.9748 11.0722 14.6738 11.48 14.5484C11.6682 14.4905 12.0509 14.3666 12.2014 14.3916C13.4247 14.5484 16.0118 14.2662 16.8148 11.7579C18.5399 12.2073 21.0806 13.89 17.4421 17.0254C16.7207 17.5375 14.8386 18.5975 13.3017 19.2829C11.2629 20.1922 3.8917 23.3903 1.69603 25.8673C0.920314 26.6486 0.00469551 28.0763 1.79959e-05 29.6565C-0.00368965 30.909 0.564946 32.2572 2.22927 33.4551C3.77193 34.5653 5.97892 34.9711 8.27749 34.9985C12.9894 35.0546 18.0861 33.5203 18.6343 33.2042C22.5865 31.4588 31.7079 27.7925 36.576 27.0901C42.6612 26.2122 46.8957 27.0588 47.5544 27.4037C46.1638 26.5885 41.8958 25.1023 35.9487 25.6792V22.1989C36.0846 21.7808 36.6011 20.9447 37.5798 20.9447C38.5584 20.9447 38.9494 21.7181 39.0226 22.1048V24.5504C40.6328 24.4459 44.8004 24.7574 48.5895 26.8393L47.8367 17.7465L46.0488 17.1195V18.7499L44.8568 18.3423V16.7119L43.1003 16.1475V17.872L41.9711 17.4644V15.8653L40.4028 15.395L38.8344 15.8653V17.4644L37.5798 17.872V16.1475L35.6037 16.7119V18.4677L34.349 18.7499V17.1195L32.2788 17.7465L32.1533 22.1989C30.6163 22.5542 25.9113 23.9923 19.3871 26.902C11.2317 30.5391 9.10742 29.6643 7.53046 29.7553C5.89939 29.8493 2.32359 27.4977 5.42889 25.1462C5.05249 25.5747 4.55689 26.7264 5.58572 27.9054C6.61455 29.0843 8.98378 28.9818 10.0398 28.7833C10.301 28.1875 12.1472 26.438 17.4421 24.2055C22.737 21.9731 24.5626 20.8715 24.8135 20.5998C26.6223 19.5546 30.0141 16.4673 29.1107 12.479C28.2074 8.49075 24.885 7.03385 23.3368 6.80394ZM11.7336 7.74452C11.6186 8.41341 10.9682 9.61324 9.28699 9.0614C9.33927 8.52838 9.90178 7.51877 11.7336 7.74452Z" fill="#FAF7F2"/>
<path d="M57.1514 26.5397V14.3685H52.3739V12.0993H64.6059V14.3685H59.8284V26.5397H57.1514Z" fill="#FAF7F2"/>
<path d="M67.9394 26.6841C66.7175 26.6841 65.6467 26.4435 64.7269 25.9621C63.8208 25.467 63.1138 24.7931 62.6059 23.9405C62.1117 23.0878 61.8645 22.1182 61.8645 21.0318C61.8645 19.9315 62.1048 18.962 62.5853 18.123C63.0795 17.2704 63.7522 16.6034 64.6034 16.122C65.4683 15.6407 66.4498 15.4 67.5481 15.4C68.6189 15.4 69.5731 15.6338 70.4105 16.1014C71.2479 16.569 71.9069 17.2291 72.3874 18.0818C72.8679 18.9345 73.1081 19.9384 73.1081 21.0936C73.1081 21.2037 73.1013 21.3274 73.0876 21.465C73.0876 21.6025 73.0807 21.7331 73.067 21.8569H63.9032V20.1447H71.7078L70.6988 20.6811C70.7125 20.0484 70.5821 19.4914 70.3075 19.0101C70.033 18.5288 69.6554 18.1506 69.1749 17.8755C68.7082 17.6004 68.1659 17.4629 67.5481 17.4629C66.9166 17.4629 66.3606 17.6004 65.8801 17.8755C65.4133 18.1506 65.0427 18.5356 64.7681 19.0307C64.5073 19.5121 64.3768 20.0828 64.3768 20.7429V21.1555C64.3768 21.8157 64.5279 22.4002 64.8299 22.909C65.1319 23.4179 65.5575 23.8098 66.1066 24.0849C66.6558 24.3599 67.2873 24.4975 68.0012 24.4975C68.6189 24.4975 69.1749 24.4012 69.6692 24.2086C70.1634 24.0161 70.6027 23.7135 70.9871 23.301L72.3668 24.8894C71.8726 25.467 71.2479 25.914 70.4929 26.2303C69.7515 26.5329 68.9004 26.6841 67.9394 26.6841Z" fill="#FAF7F2"/>
<path d="M75.1689 26.5397V15.5238H77.6194V18.5563L77.3311 17.6692C77.6606 16.9266 78.1754 16.3627 78.8755 15.9776C79.5894 15.5925 80.4749 15.4 81.532 15.4V17.8549C81.4222 17.8274 81.3192 17.8136 81.2231 17.8136C81.127 17.7999 81.0309 17.793 80.9348 17.793C79.9601 17.793 79.1844 18.0818 78.6078 18.6594C78.0312 19.2233 77.7429 20.0691 77.7429 21.1968V26.5397H75.1689Z" fill="#FAF7F2"/>
<path d="M90.1182 26.5397V24.3118L89.974 23.8373V19.9384C89.974 19.182 89.7475 18.5975 89.2945 18.1849C88.8414 17.7586 88.155 17.5454 87.2352 17.5454C86.6174 17.5454 86.0065 17.6417 85.4025 17.8342C84.8121 18.0268 84.311 18.295 83.8992 18.6388L82.8901 16.7615C83.4805 16.3077 84.1806 15.9707 84.9906 15.7507C85.8143 15.5169 86.6655 15.4 87.5441 15.4C89.1366 15.4 90.3653 15.7851 91.2302 16.5552C92.1088 17.3116 92.5481 18.4875 92.5481 20.0828V26.5397H90.1182ZM86.6586 26.6841C85.8349 26.6841 85.1142 26.5466 84.4964 26.2716C83.8786 25.9827 83.3981 25.5908 83.0549 25.0957C82.7254 24.5868 82.5607 24.0161 82.5607 23.3835C82.5607 22.7646 82.7048 22.2076 82.9931 21.7125C83.2951 21.2174 83.7825 20.8255 84.4552 20.5367C85.1279 20.2478 86.0202 20.1034 87.1322 20.1034H90.3241V21.8157H87.3176C86.439 21.8157 85.8486 21.9601 85.5466 22.2489C85.2446 22.5239 85.0936 22.8677 85.0936 23.2803C85.0936 23.7479 85.2789 24.1193 85.6496 24.3943C86.0202 24.6694 86.5351 24.8069 87.194 24.8069C87.8255 24.8069 88.3884 24.6625 88.8826 24.3737C89.3906 24.0849 89.7544 23.6585 89.974 23.0947L90.4065 24.6419C90.1594 25.2882 89.7132 25.7902 89.068 26.1478C88.4364 26.5054 87.6333 26.6841 86.6586 26.6841Z" fill="#FAF7F2"/>
<path d="M95.1515 26.5397V24.91L101.926 16.6996L102.4 17.5867H95.275V15.5238H104.459V17.1535L97.6844 25.3639L97.1696 24.4768H104.645V26.5397H95.1515Z" fill="#FAF7F2"/>
<path d="M117.569 26.746C116.47 26.746 115.447 26.5672 114.5 26.2097C113.567 25.8383 112.75 25.3226 112.05 24.6625C111.363 23.9886 110.828 23.1978 110.443 22.2901C110.059 21.3825 109.867 20.3923 109.867 19.3195C109.867 18.2468 110.059 17.2566 110.443 16.3489C110.828 15.4413 111.37 14.6574 112.07 13.9972C112.77 13.3233 113.587 12.8076 114.521 12.45C115.454 12.0787 116.477 11.893 117.589 11.893C118.77 11.893 119.847 12.0993 120.822 12.5119C121.797 12.9108 122.621 13.509 123.293 14.3067L121.564 15.9364C121.042 15.3725 120.458 14.953 119.813 14.678C119.168 14.3892 118.468 14.2448 117.713 14.2448C116.958 14.2448 116.264 14.3685 115.633 14.6161C115.015 14.8636 114.473 15.2143 114.006 15.6682C113.553 16.122 113.196 16.6584 112.935 17.2773C112.688 17.8961 112.565 18.5769 112.565 19.3195C112.565 20.0622 112.688 20.7429 112.935 21.3618C113.196 21.9807 113.553 22.5171 114.006 22.9709C114.473 23.4247 115.015 23.7754 115.633 24.023C116.264 24.2705 116.958 24.3943 117.713 24.3943C118.468 24.3943 119.168 24.2568 119.813 23.9817C120.458 23.6929 121.042 23.2597 121.564 22.6821L123.293 24.3324C122.621 25.1163 121.797 25.7146 120.822 26.1272C119.847 26.5397 118.763 26.746 117.569 26.746Z" fill="#FAF7F2"/>
<path d="M131.233 15.4C132.112 15.4 132.894 15.5719 133.581 15.9157C134.281 16.2595 134.83 16.789 135.228 17.5042C135.626 18.2056 135.825 19.1132 135.825 20.2272V26.5397H133.251V20.5573C133.251 19.5808 133.018 18.8519 132.551 18.3706C132.098 17.8892 131.46 17.6486 130.636 17.6486C130.032 17.6486 129.496 17.7724 129.03 18.0199C128.563 18.2674 128.199 18.6388 127.938 19.1339C127.691 19.6152 127.568 20.2272 127.568 20.9699V26.5397H124.993V11.2329H127.568V18.4944L127.012 17.5867C127.396 16.8853 127.952 16.3489 128.68 15.9776C129.421 15.5925 130.272 15.4 131.233 15.4Z" fill="#FAF7F2"/>
<path d="M138.679 26.5397V15.5238H141.253V26.5397H138.679ZM139.976 13.7084C139.496 13.7084 139.097 13.5571 138.782 13.2546C138.48 12.952 138.329 12.5876 138.329 12.1612C138.329 11.7211 138.48 11.3567 138.782 11.0679C139.097 10.7653 139.496 10.614 139.976 10.614C140.457 10.614 140.848 10.7584 141.15 11.0473C141.466 11.3223 141.624 11.673 141.624 12.0993C141.624 12.5532 141.473 12.9383 141.17 13.2546C140.868 13.5571 140.47 13.7084 139.976 13.7084Z" fill="#FAF7F2"/>
<path d="M150.665 15.4C151.544 15.4 152.326 15.5719 153.013 15.9157C153.713 16.2595 154.262 16.789 154.66 17.5042C155.058 18.2056 155.257 19.1132 155.257 20.2272V26.5397H152.683V20.5573C152.683 19.5808 152.45 18.8519 151.983 18.3706C151.53 17.8892 150.892 17.6486 150.068 17.6486C149.464 17.6486 148.928 17.7724 148.462 18.0199C147.995 18.2674 147.631 18.6388 147.37 19.1339C147.123 19.6152 147 20.2272 147 20.9699V26.5397H144.425V15.5238H146.876V18.4944L146.443 17.5867C146.828 16.8853 147.384 16.3489 148.111 15.9776C148.853 15.5925 149.704 15.4 150.665 15.4Z" fill="#FAF7F2"/>
<path d="M158.61 30.6862C158.074 30.6862 157.539 30.5968 157.004 30.418C156.468 30.2392 156.022 29.9917 155.665 29.6754L156.695 27.7775C156.955 28.0113 157.251 28.1969 157.58 28.3345C157.91 28.472 158.246 28.5408 158.589 28.5408C159.056 28.5408 159.433 28.4239 159.722 28.1901C160.01 27.9563 160.278 27.5643 160.525 27.0142L161.163 25.5702L161.369 25.2607L165.529 15.5238H168L162.852 27.4268C162.509 28.252 162.124 28.9052 161.699 29.3866C161.287 29.8679 160.82 30.2048 160.298 30.3974C159.79 30.5899 159.228 30.6862 158.61 30.6862ZM160.875 26.9317L155.912 15.5238H158.589L162.625 25.0338L160.875 26.9317Z" fill="#FAF7F2"/>
</svg>

<svg xmlns="http://www.w3.org/2000/svg" fill="none" viewBox="0 0 168 35"><path fill="#faf7f2" fill-rule="evenodd" d="M23.337 6.804c.24-.25 1.047-.753 2.352-.753-.732-.334-3.136-.852-6.9-.25C20.159 5.1 22.96 2.96 23.21 0c-.899 1.296-3.695 4.201-7.684 5.456.773-.69 2.189-2.628 1.662-4.86-.648 1.473-3.011 4.734-7.277 5.988-.481.147-1.581.69-2.133 2.195-.21.408-1.048 1.305-2.729 1.63-.366.032-1.16 0-1.443 0a.9.9 0 0 0-.596.628c-.055.22-.175.715 0 1.317.303.585 1.236 1.806 2.54 2.006-.23-.261-.551-.909 0-1.41.178-.022.59-.05.816 0s1.433-.46 2.008-.722c.522-.188 1.706-.445 2.258.031.552.477-.523 1.056-1.13 1.286-.24.146-.896.62-1.599 1.348-.702.728-1.63.429-2.007.188-.021.544.313 1.643 1.819 1.694.282.02 1.01-.145 1.662-.972.653-.828 1.694-1.13 2.102-1.255.188-.057.57-.181.721-.156 1.224.156 3.81-.126 4.614-2.634 1.725.45 4.266 2.132.627 5.267-.721.513-2.603 1.573-4.14 2.258-2.04.91-9.41 4.107-11.606 6.584C.92 26.65.005 28.077 0 29.657c-.004 1.252.565 2.6 2.23 3.798 1.542 1.11 3.749 1.516 6.047 1.544 4.712.056 9.81-1.479 10.357-1.795 3.953-1.745 13.074-5.411 17.942-6.114 6.085-.878 10.32-.031 10.978.314-1.39-.816-5.658-2.302-11.605-1.725V22.2c.136-.418.652-1.254 1.63-1.254.98 0 1.37.773 1.444 1.16v2.445c1.61-.104 5.777.207 9.566 2.29l-.752-9.093-1.788-.628v1.63l-1.192-.407v-1.63l-1.757-.564v1.724l-1.129-.408v-1.599l-1.568-.47-1.569.47v1.6l-1.254.407v-1.724l-1.976.564v1.756l-1.255.282v-1.63l-2.07.627-.126 4.452c-1.537.355-6.242 1.793-12.766 4.703-8.155 3.637-10.28 2.762-11.857 2.853-1.63.094-5.206-2.257-2.101-4.609-.377.429-.872 1.58.157 2.76 1.029 1.178 3.398 1.076 4.454.877.261-.596 2.107-2.345 7.402-4.578s7.12-3.333 7.372-3.605c1.808-1.045 5.2-4.133 4.297-8.121s-4.226-5.445-5.774-5.675m-11.603.94c-.115.67-.766 1.87-2.447 1.317.052-.533.615-1.542 2.447-1.316" clip-rule="evenodd"/><path fill="#faf7f2" d="M57.151 26.54V14.369h-4.777v-2.27h12.232v2.27h-4.778v12.17z"/><path fill="#faf7f2" d="M67.94 26.684q-1.833 0-3.213-.722a5.46 5.46 0 0 1-2.121-2.021q-.741-1.28-.742-2.91 0-1.65.721-2.908a5.3 5.3 0 0 1 2.018-2.001q1.298-.722 2.945-.722 1.606 0 2.862.701a5.07 5.07 0 0 1 1.977 1.98q.72 1.28.721 3.013 0 .165-.02.371 0 .206-.021.392h-9.164v-1.712h7.805l-1.01.536q.022-.95-.39-1.67a3 3 0 0 0-1.133-1.136q-.701-.412-1.627-.412-.947 0-1.668.412-.7.413-1.112 1.156-.39.722-.391 1.712v.413q0 .99.453 1.753t1.277 1.176 1.894.412q.927 0 1.668-.288a3.55 3.55 0 0 0 1.318-.908l1.38 1.588a4.9 4.9 0 0 1-1.874 1.341q-1.113.454-2.554.454M75.169 26.54V15.524h2.45v3.032l-.288-.887a3.5 3.5 0 0 1 1.544-1.691q1.071-.578 2.657-.578v2.455a1.3 1.3 0 0 0-.309-.041 2 2 0 0 0-.288-.021q-1.462 0-2.327.866-.865.846-.865 2.538v5.343zM90.118 26.54v-2.228l-.144-.475v-3.899q0-1.134-.68-1.753-.68-.64-2.059-.64-.927 0-1.832.29-.886.288-1.504.804l-1.009-1.877q.885-.681 2.1-1.011a9.3 9.3 0 0 1 2.554-.351q2.389 0 3.686 1.155 1.318 1.136 1.318 3.528v6.457zm-3.46.144q-1.235 0-2.162-.412-.926-.434-1.441-1.176a3.1 3.1 0 0 1-.494-1.712q0-.929.432-1.672.454-.742 1.462-1.175 1.01-.434 2.677-.434h3.192v1.713h-3.006q-1.319 0-1.771.433a1.34 1.34 0 0 0-.453 1.031q0 .703.556 1.114.555.413 1.544.413.947 0 1.689-.433a2.44 2.44 0 0 0 1.091-1.28l.432 1.548q-.37.969-1.338 1.506-.948.536-2.41.536M95.152 26.54v-1.63l6.774-8.21.474.887h-7.125v-2.063h9.184v1.63l-6.775 8.21-.514-.887h7.475v2.063zM117.569 26.746a8.6 8.6 0 0 1-3.069-.536 7.7 7.7 0 0 1-2.45-1.547 7.3 7.3 0 0 1-1.607-2.373q-.576-1.361-.576-2.97t.576-2.971a6.9 6.9 0 0 1 1.627-2.352 7.2 7.2 0 0 1 2.451-1.547q1.4-.557 3.068-.557 1.771 0 3.233.619a6.3 6.3 0 0 1 2.471 1.795l-1.729 1.63a5.1 5.1 0 0 0-1.751-1.259 5.1 5.1 0 0 0-2.1-.433 5.7 5.7 0 0 0-2.08.371 5 5 0 0 0-1.627 1.052q-.68.68-1.071 1.61-.37.927-.37 2.042 0 1.113.37 2.042a5 5 0 0 0 1.071 1.609 5 5 0 0 0 1.627 1.052 5.7 5.7 0 0 0 2.08.371q1.132 0 2.1-.412a5.25 5.25 0 0 0 1.751-1.3l1.729 1.65a6.6 6.6 0 0 1-2.471 1.795q-1.462.62-3.253.619M131.233 15.4q1.318 0 2.348.516 1.05.515 1.647 1.588.597 1.053.597 2.723v6.313h-2.574v-5.983q0-1.464-.7-2.186-.68-.723-1.915-.722-.906 0-1.606.37a2.6 2.6 0 0 0-1.092 1.115q-.37.722-.37 1.836v5.57h-2.575V11.233h2.575v7.261l-.556-.907a3.85 3.85 0 0 1 1.668-1.61q1.112-.577 2.553-.577M138.679 26.54V15.524h2.574V26.54zm1.297-12.832q-.72 0-1.194-.453a1.5 1.5 0 0 1-.453-1.094q0-.66.453-1.093.473-.454 1.194-.454t1.174.433q.474.413.474 1.052 0 .681-.454 1.156-.453.453-1.194.453M150.665 15.4q1.318 0 2.348.516 1.05.515 1.647 1.588.597 1.053.597 2.723v6.313h-2.574v-5.983q0-1.464-.7-2.186-.68-.723-1.915-.722-.906 0-1.606.37a2.6 2.6 0 0 0-1.092 1.115q-.37.722-.37 1.836v5.57h-2.575V15.524h2.451v2.97l-.433-.907a3.86 3.86 0 0 1 1.668-1.61q1.113-.577 2.554-.577M158.61 30.686q-.804 0-1.606-.268-.804-.268-1.339-.743l1.03-1.898q.39.351.885.557a2.6 2.6 0 0 0 1.009.207q.7 0 1.133-.35.432-.352.803-1.177l.638-1.444.206-.31 4.16-9.736H168l-5.148 11.903q-.515 1.237-1.153 1.96-.618.721-1.401 1.01a4.7 4.7 0 0 1-1.688.29m2.265-3.754-4.963-11.408h2.677l4.036 9.51z"/></svg>
